X:1503
T:Contradiction, The
R:reel
N:"collected from J. O'Neill"
B:"O'Neill's Dance Music of Ireland, 1503"
T: an frio.trai.dea.cd.
Z:transcribed by John B. Walsh, walsh@math.ubc.ca 8/23/96
M:C|
L:1/8
K:A
e "Segno"|c2 {d}((3cBA) (BE)ED|CEAc dfed|c2 ((3{d}cBA) GABc|defg afed|
c2 ((3{d}cBA) (BE)ED CEAc dfed|c2 ((3{d}cBA) GABg|afec A/A/A A||
g|aA A/A/A (aA)cA|GBEB EBEg|aA A/A/A (aA)cA|GBEB cAAg|
aA A/A/A (aA)cA|GBEB EBEg|agfe fedc|dEFG A2||
e2|ae(c'e) ae(c'e)|be(d'e) be(d'e)|c'e(e'e)c'e(e'e)|dcBA (EA)A2|
ae(c'e) ae(c'e)|be(d'e) be(d'e)|c'e(e'e)c'e(e'e)|dcBA (EA)A2||
cefe cefe|dcBA (BE)E2|cefe cefe|fagb afed|
cefe cefe|((3fga) ec (BE)E2|ecea fdfa|(gb)eg (ae)fd "Segno"||


